X:1
T:On a mal dit
T:On a mal dit
T:Jean de Hollande
C:Jean de Hollande
%%score [ 1 [ 2 3 ] 4 ]
L:1/8
Q:1/4=76
M:2/2
K:C
V:1 treble nm="Superius" snm="S"
V:2 treble nm="Altus" snm="A"
V:3 treble-8 nm="Tenor" snm="T"
V:4 bass nm="Bass" snm="B"
V:1
 c4 A2 B2 | c2 G2 A2 GF | E2 D2 C4 | z8 | c4 A2 B2 | c2 G2 AGGF/E/ | F2 G3 E A2- | A2 G2 A2 c2 | %8
w: On a mal|dit de mon _ _|_ a- my,||on a mal|dit de mon _ _ _ _|_ _ _ _|* a- my, de|
 cB GA Bc d2- | d2 GA Bc d2- | dc c2 B2 d2- | d2 c4 B2 | c4 z4 | z2 G2 c3 d | e2 d2 c2 B2 | %15
w: mon _ _ _ _ _ _|_ _ _ _ _ _||* * a-|my,|dont j'ay _|_ le cueur trist'-|
 G2 d4 c2- | c2 B2 c4 | z8 | z8 | z2 G2 c2 d2 | e2 c4 B2 | AB cA B2 A2- |"^#" A2 G4 F2 | G4 d2 dc | %24
w: et _ _|_ mar- ri,|||dont j'ay le|cueur trist'- et|_ _ _ _ _ _|* * mar-|ri, mais- qu'en ont|
 BA G2 G2 GF | ED C4 c2 | c2 A2 d3 c | BA G4 G2 | G4 A4 | G3 A Bc d2- | d2 c4 B2 | c4 z4 | %32
w: ilz af- fair,' mais qu'en ont|ilz af- fair', ou|s'il est beau, _|_ _ _ ou|s'il est|laid, _ _ _ _|_ _ _||
 z4 z2 G2 | A2 B2 c4- | c2 B2 A4 | G3 A B2 c2 | d4 z2 G2 | F2 E4 D2 | E2 G2 A2 B2 | c2 A2 B2 A2- | %40
w: puis-|qu'il est bien|_ à mon|_ _ _ plai-|sir, à-|mon plai- *|sir, puis- qu'il est|bien à mon- _|
 AG G4 F2 | G2 E2 F4 | E4 z4 | z8 | z2 G2 A2 B2 | c2 A2 B2 A2- | AG G4 F2 | G8 |] %48
w: _ _ _ _|* * plai-|sir,,||puis- qu'il est|bien à mon _|_ _ _ plai-|sir.|
V:2
 z8 | z8 | G4 E2 F2 | G2 E2 F2 D2 | E2 z E F2 D2 | E3 D CB, E2- | E2 D2 E2 F2- | F2 ED C3 D | %8
w: ||dit de mon|a- my, on a|mal dit de mon|a- my, on _ _|_ _ _ _||
 EF G3 FDE | FEDC D2 G2 | E2 F2 G2 D2 | E2 F2 G4 | z2 C2 F3 G | A2 G2 G2 F2 | GABG A2 G2- | %15
w: |a * * * mal dit|de mon a- my,|dont j'ay le|cueur trist'- _|_ et mar- ri,|dont _ _ _ _ _|
 G2 F2 G4 | z4 z2 C2 | F2 G2 A2 F2 | GFGA BAB/A/G/F/ | E2 G2 A2 G2- | G2 E2 A2 GF | E2 F2 D2 F2- | %22
w: _ j'ay le|cueur|trist'- et mar- ri,|mais _ _ _ _ _ _ _ _ _|_ _ _ _||* * qu'en ont|
 FEDC D2 D2 | DCB,A, G,4 | z8 | z2 G2 GFED | C2 C2 F2 F2 | D4 z2 G2 | GF ED C2 F2 | E2 G4 F2 | %30
w: _ _ _ _ _ ilz|af- fair', mais qu'en ont||ilz af- fair', ou s'il|est beau, ou s'il|est beau|ou _ s'il _ est laid,|puis- _ qu'il|
 G4 z4 | z2 E2 F2 G2 | A2 A2 G3 F | ED G4 F2 | G2 E4 D2 | E2 C2 D2 E2 | F4 z2 C2 | D2 E2 F4 | %38
w: est|bien à mon|plai- sir, à _|_ _ _ mon|plai- sir, à|mon * * *|plai- sir,|puis- qu'il est|
 z4 z2 G2 | E2 F2 G2 F2- | FEDC DC F2- | F2 E4 D2 | E2 C2 D2 E2 | F2 D2 EFGE | F2 G2 C2 G2 | %45
w: bien|à mon plai- sir,|_ _ _ _ puis- _ _|_ _ qu'il|est bien à mon|plai- sir, à _ _ _|_ mon plai- sir.|
 E2 F2 G2 F2- | FEDC D4 | B,8 |] %48
w: On _ _ _|_ _ _ _ a|mal|
V:3
 z8 | z8 | z8 | c4 A2 B2 | c2 G2 A2 G2 | c4 z2 c2 | A2 B2 c2 A2 | B2 c3 def | g3 f/e/ d4 | z4 G4 | %10
w: |||dit de mon|a- my, on a|mal dit|de mon a- my,|dont _ _ _ _|j'ay * * le|cueur|
 c2 c2 d2 B2 | cB cd e2 d2- | d2 c4 B2 | cBAG A4 | G4 z2 G2 | c2 d2 e2 c2 | d2 d2 c4 | %17
w: trist'- et mar- ri,|dont _ _ _ _ _|_ _ _|* * * * j'ay|le cueur|trist'- et mar- ri,|dont j'ay le|
 z2 G2 c2 d2 | e2 c2 d2 d2 | c4 z2 G2 | c2 c2 d2 B2 | c2 A2 BcdB | cB AG A4 | G4 z2 d2 | dcBA G4 | %25
w: cueur trist'- et|mar- ri, dont j'ay|le cueur|trist'- et mar- ri,|mais _ _ _ _ _|_ _ _ _ qu'en|ont ilz|af- fair', ou s'il est|
 z2 G2 c2 c2 | A4 z2 d2 | dc BA G2 G2 | c2 c2 A3 B | cd e4 d2 | e2 c2 d4 | c4 z2 B2 | c2 d2 e4 | %33
w: beau, ou s'il|est laid,|puis- _ qu'il _ est bien|à mon plai- _|_ _ _ sir,|puis- _ qu'il|est bien,|puis- qu'il est|
 z4 z2 c2 | d2 e2 f4- | f2 e2 d2 c2- | c2 B2 c4 | z2 G2 A2 B2 | c2 e4 d2- | d2 c2 d4 | c2 B2 A4 | %41
w: bien|à mon plai-|_ sir, puis- _|_ qu'il est|bien à mon|plai- sir, puis-|_ _ _|* * qu'il|
 G4 z4 | z4 z2 G2 | A2 B2 c2 c2 | d2 e3 d d2- | d2 c2 d4 | c2 B2 A4 | G8 |] %48
w: est|bien|à mon plai- sir,|à _ _ _|_ mon plai-|sir On a|mal|
V:4
 z8 | C4 A,2 B,2 | C2 G,2 A,2 F,2 | E,2 D,C, D,4 | C,4 z4 | z8 | z4 z2 F,2 | D,2 E,2 F,2 C,2- | %8
w: |dit de mon|a- my, on _|_ _ _ a|mal||dit|de mon a- my,|
 C,D,E,F, G,A,B,C | D2 C4 B,2 | C2 A,2 G,4 | E,2 A,2 G,3 F, | E,2 F,2 D,4 | C,4 z4 | z8 | %15
w: _ _ _ _ de _ _ _|_ _ mon|a- my, dont|_ _ _ _|* * j'ay|le||
 z4 z2 C,2 | F,2 G,2 A,3 G, | F,2 E,2 F,2 D,2 | C,2 C4 B,2 | C4 z4 | z2 C,2 F,2 G,2 | %21
w: cueur|trist'- et mar- _|_ ri, dont _|_ _ j'ay|le|cueur trist'- et|
 A,2 F,2 G,2 D,2 | F,2 G,2 D,4 | z2 D2 DCB,A, | G,4 z2 G,2 | G,F,E,D, C,2 C,2 | F,2 F,2 D,4 | %27
w: mar- ri, mais _|_ qu'en ont|ilz af- fair' mais qu'en|ont ilz|af- fair', ou s'il est beau,|ou s'il est|
 z2 G,2 G,F, E,D, | C,4 z4 | z8 | z2 E,2 F,2 G,2 | A,6 G,2 | F,2 F,2 C,2 C2- | C2 B,2 A,4 | %34
w: laid, puis- _ qu'il _|est||bien à mon|plai- sir,|à mon plai- sir,|_ puis- qu'il|
 G,2 G,2 A,2 B,2 | C2 C,2 G,2 E,2 | D,4 C,4 | z8 | z2 E,2 F,2 G,2 | A,2 A,2 G,2 D,2 | F,2 G,2 D,4 | %41
w: est bien à mon|plai- sir, puis- _|qu'il est||bien à mon|plai- sir, puis- _|_ qu'il est|
"^#" z2 G,2 A,2 B,2 | C2 C,2 G,2 E,2 | D,4 C,4 | z2 E,2 F,2 G,2 | A,2 A,2 G,2 D,2 | F,2 G,2 D,4 | %47
w: bien à mon|plai- sir, puis- _|qu'il est|bien à mon|plai- sir. * *||
 G,8 |] %48
w: |

